X:212
T:The Golden Oak 
R:
C:Bruce Osborne - Apr. 2005
Z:abc by bosborne@kos.net
M:3/4
L:1/8
K:Fmaj
cB|AF EF CD|F3 c =Bc|fe fa gf|d3 f ed|\
cA FA ce|fe fa gf|1 ed ef ga|g4:|2ed ef ge|f4
|:cB|AF EF Ac|f4 cB|AF EF Ac|B4 GF|\
ED EF GA|BA Bc ed|1 cd cB A_A|A4:|2cd cB GE|F4||
